!!!!SEGMENT: pl-cz--i-37--004_jarecki-jozef--requiem-sanctus.krn
!!!cenid: 18xx:849
!!!COM: Jarecki, Józef
!!!COM-rismid: pe41001558
!!!CDT: 1818/08/02-1871/12/23
!!!CNT: Polish
!!!OPR: Requiem
!!!OTL: Sanctus
!!!OMV: 004
!!!PDT:
!!!AGN: Sacred; Requiem
!!!SMS-siglum: PL-CZ
!!!SMS-shelfmark: I-37
!!!SMS-shelfwork: 001-004 M
!!!SMS-variant:
!!!SMS-altvar:
!!!NIFC-rismid: 300000525
!!!URL-scan: http://repozytorium.nifc.pl/skany/pl-cz-nut--i-37
!!!ONB-nifc: UWAGA: części Requiem: Requiem, Dies irae, Domine Jesu Christe, Sanctus, Benedictus,
!!!AIN: 1 bass 2 organ 2 tenor
!!!key:
**kern	**kern	**kern	**kern	**text	**kern	**text
*part5	*part4	*part3	*part2	*part2	*part1	*part1
*staff5	*staff4	*staff3	*staff2	*staff2	*staff1	*staff1
*Iorgan	*Iorgan	*Ibass	*Itenor	*	*Itenor	*
*I"Organo	*I"Organo	*I"Basso	*I"Tenore II	*	*I"Tenore I	*
*I'org	*	*I'B	*I'T 2	*	*I'T 1	*
*clefF4	*clefG2	*clefF4	*clefG2	*	*clefG2	*
*k[b-e-a-]	*k[b-e-a-]	*k[b-e-a-]	*k[b-e-a-]	*	*k[b-e-a-]	*
*E-:	*E-:	*E-:	*E-:	*	*E-:	*
*M4/4	*M4/4	*M4/4	*M4/4	*	*M4/4	*
*met(c)	*met(c)	*met(c)	*met(c)	*	*met(c)	*
=1	=1	=1	=1	=1	=1	=1
!	!	!	!	!	!LO:TX:rj:a:t=Sanctus	!
!	!	!	!	!	!LO:TX:a:t=Adagio	!
4EE-/ 4E-/	4e-/ 4g/	1E-\	1e-/	.	1g/	San-
4EE-/	4e-/ 4g/	.	.	.	.	.
4EE-/	4e-/ 4g/	.	.	.	.	.
4EE-/	4e-/ 4g/	.	.	.	.	.
=2	=2	=2	=2	=2	=2	=2
2EE-/ 2E-/	2G/ 2B-/ 2e-/	2E-\	2e-/	.	2e-/	-ctus
2r	2r	2r	2r	.	2r	.
=3	=3	=3	=3	=3	=3	=3
4EE-/ 4E-/	4e-/ 4g/ 4b-/	1E-\	1g/	.	1b-\	San-
4EE-/ 4E-/	4e-/ 4g/ 4b-/	.	.	.	.	.
4EE-/ 4E-/	4e-/ 4g/ 4b-/	.	.	.	.	.
4EE-/ 4E-/	4e-/ 4g/ 4b-/	.	.	.	.	.
=4	=4	=4	=4	=4	=4	=4
2EE-/ 2E-/	2e-/ 2g/	2E-\	2e-/	.	2g/	-ctus
2r	2r	2r	2r	.	2r	.
=5	=5	=5	=5	=5	=5	=5
*tremolo	*	*	*	*	*	*
*	*tremolo	*	*	*	*	*
8EE-/ 8E-/L	8e-\ 8ee-\L	1E-\	1ee-\	.	1ee-\	San-
8EE-/ 8E-/	8e-\ 8ee-\	.	.	.	.	.
8EE-/ 8E-/	8e-\ 8ee-\	.	.	.	.	.
8EE-/ 8E-/J	8e-\ 8ee-\J	.	.	.	.	.
8EE-/ 8E-/L	8e-\ 8ee-\L	.	.	.	.	.
8EE-/ 8E-/	8e-\ 8ee-\	.	.	.	.	.
8EE-/ 8E-/	8e-\ 8ee-\	.	.	.	.	.
8EE-/ 8E-/J	8e-\ 8ee-\J	.	.	.	.	.
*	*Xtremolo	*	*	*	*	*
*Xtremolo	*	*	*	*	*	*
=6	=6	=6	=6	=6	=6	=6
2EE-/ 2E-/	2e-/	2E-\	2e-/	.	2e-/	-ctus
2r	2r	2r	2r	.	2r	.
=7	=7	=7	=7	=7	=7	=7
4BB-/	2r	2r	2r	.	2r	.
4BB-/	.	.	.	.	.	.
4BB-/	4f/ 4a-/	4BB-/	4f/	.	4a-/	Do-
4BB-/	4e-/ 4g/	8BB-/	8e-/	.	8g/	-mi-
.	.	8BB-/	8e-/	.	8g/	-nus
=8	=8	=8	=8	=8	=8	=8
2D\	2d/ 2f/	4BB-/	4d/	.	4f/	De-
.	.	4BB-/	4d/	.	4f/	-us
4D\	4f/ 4a-/	4BB-/	4f/	.	4a-/	sa-
4D\	4e-/ 4g/	4BB-/	4e-/	.	4g/	-ba-
=9	=9	=9	=9	=9	=9	=9
4BB-/	4d/ 4f/	4BB-/	4d/	.	4f/	-oth
4r	4r	4r	4r	.	4r	.
4BB-/	4B-/	2r	2r	.	2r	.
4BB-/	4B-/	.	.	.	.	.
=10	=10	=10	=10	=10	=10	=10
2BB-;/	2B-;/	1r	1r	.	1r	.
2r;	2r;	.	.	.	.	.
=11||	=11||	=11||	=11||	=11||	=11||	=11||
!	!	!	!	!	!LO:TX:a:t=Allo	!
1r	1r	2B-\	2b-/	.	2b-/	Ple-
.	.	4B-\	4b-/	.	4b-/	-ni
.	.	4B-\	4b-/	.	4b-/	sunt
=12	=12	=12	=12	=12	=12	=12
!!linebreak:original
1r	1r	2B-\	2b-/	.	2b-/	cae-
.	.	4B-\	4b-/	.	4b-/	-li
.	.	4B-\	4b-/	.	4b-/	et
=13	=13	=13	=13	=13	=13	=13
4EE-/ 4E-/	4g\ 4b-\ 4ee-\	(2E-\	(2b-\	.	(2ee-\	ter-
4r	4r	.	.	.	.	.
4BB-\ 4B-\	4b-\ 4dd\ 4ff\	2B-\)	2dd\)	.	2ff\)	.
4r	4r	.	.	.	.	.
=14	=14	=14	=14	=14	=14	=14
4e-\	4b-\ 4ee-\ 4gg\	4E-\	2b-\	.	2gg\	-ra
4r	4r	4r	.	.	.	.
2r	2r	2r	2r	.	2r	.
!!LO:LB:g=original
=15	=15	=15	=15	=15	=15	=15
2E-\ 2e-\	2ee-\	2E-\	(2ee-\	.	(2ee-\	glo-
2BB-\ 2B-\	2b-\	2B-\	2b-\)	.	2b-\)	.
=16	=16	=16	=16	=16	=16	=16
2GG/ 2G/	2g/	2G\	2g/	.	2g/	-ri-
2EE-/ 2E-/	2e-/	2E-\	2e-/	.	2e-/	-a
=17	=17	=17	=17	=17	=17	=17
2B-\	2b-/	2B-\	2b-\	.	2b-\	tu-
4.BB-/	4.B-/	4BB-/	4B-/	.	4B-/	-a
.	.	4r	4r	.	4r	.
8BB-/	8B-/	.	.	.	.	.
=18	=18	=18	=18	=18	=18	=18
4.BB-/ 4.F/	4.B-/ 4.d/	1r	1r	.	1r	.
8BB-/ 8F/	8B-/ 8d/	.	.	.	.	.
4.BB-/ 4.F/	4.B-/ 4.d/	.	.	.	.	.
8BB-/ 8F/	8B-/ 8d/	.	.	.	.	.
=19	=19	=19	=19	=19	=19	=19
!	!	!LO:TX:t=P:problem=fermata bez kropki	!	!	!	!
2BB-;\ 2F\	2B-;/ 2d/	2r;	1r	.	1r	.
4r	2r	4r	.	.	.	.
4BB-/	.	4BB-/	.	.	.	.
=20	=20	=20	=20	=20	=20	=20
*^	*	*	*	*	*	*
4E-/	2.rEEyy	1r	4E-\	2r	.	1r	.
4F/	.	.	4F\	.	.	.	.
4G/	.	.	4G\	4r	.	.	.
4An/	8F\L	.	8F\L	4an/	O-	.	.
.	8E-\J	.	8E-\J	.	.	.	.
=21	=21	=21	=21	=21	=21	=21	=21
4B-/	4D\	2r	4D\	4b-/	-san-	1r	.
4c/	4C\	.	4C\	4cc/	-na	.	.
4d/	4BB-\	4r	4BB-/	4dd/	in	.	.
8c/L	4rEE	4b-/	4BB-/	(8cc/L	ex	.	.
8B-/J	.	.	.	8b-/J)	.	.	.
*v	*v	*	*	*	*	*	*
=22	=22	=22	=22	=22	=22	=22
*	*^	*	*	*	*	*
4G\	4e-/	2.rcyy	4E-\	4g/	.	2r	.
4F\	4f/	.	4F\	4f/	.	.	.
4E-\	4g/	.	4G\	4e-/	.	4r	.
4r	4an/	8f\L	8F\L	4r	.	4an/	O-
.	.	8e-\J	8E-\J	.	.	.	.
=23	=23	=23	=23	=23	=23	=23	=23
2r	4b-/	4d\	4D\	2r	.	4b-\	-san-
.	4cc/	4c\	4C\	.	.	4cc\	-na
4r	4dd/	4B-\	4BB-/	4r	.	4dd\	in
4A-X\	8cc/L	4d\ 4f\	4A-X\	4f/	O	(8cc\L	ex-
.	8b-/J	.	.	.	.	8b-\J)	.
*	*v	*v	*	*	*	*	*
=24	=24	=24	=24	=24	=24	=24
4G\	4e-\ 4b-\ 4ee-\	4G\	2b-/	.	(4ee-\	-cel-
4F\	4b-\ 4dd\ 4ff\	4F\	.	.	4ff\)	.
4E-\	4b-\ 4ee-\ 4gg\	4E-\	4b-/	.	4gg\	-sis
4G\	4e-\ 4b-\ 4ee-\	4G\	4b-/	.	4ee-\	o-
=25	=25	=25	=25	=25	=25	=25
!!linebreak:original
4A-\	4e-/ 4a-/ 4cc/	4A-\	4a-/	.	4cc\	-san-
4F\	4a-/ 4b-/ 4dd/	4F\	4b-/	.	4dd\	-na
4G\	4g/ 4b-/ 4ee-/	4G\	4b-/	.	4ee-\	in
4A-\	4f/ 4b-/ 4ff/	4A-\	4b-/	.	4ff\	ex-
=26	=26	=26	=26	=26	=26	=26
8BB-\L	2b-\ 2ee-\ 2gg\	2B-\	2ee-\	.	(2gg\	-cel-
8E-\	.	.	.	.	.	.
8G\	.	.	.	.	.	.
8B-\J	.	.	.	.	.	.
8BB-\L	2b-\ 2dd\ 2ff\	2BB-/	2dd\	.	2ff\)	.
8D\	.	.	.	.	.	.
8F\	.	.	.	.	.	.
8B-\J	.	.	.	.	.	.
=27	=27	=27	=27	=27	=27	=27
4CC/ 4E-/	4g\ 4b-\ 4ee-\	4E-\	4ee-\	.	4ee-\	-sis
!LO:TX:a:t=es	!	!	!	!	!	!
8e-\L	8ee-\L	4r	4r	.	4r	.
!LO:TX:a:t=d	!	!	!	!	!	!
8d\J	8dd\J	.	.	.	.	.
8e-\L	8ee-\L	4r	4r	.	4r	.
8B-\	8b-\	.	.	.	.	.
8G\	8g\	4E-\	4b-\	.	4b-\	O-
8E-\J	8e-\J	.	.	.	.	.
=28	=28	=28	=28	=28	=28	=28
8BB-\L	1b-\ 1dd\ 1ff\	1BB-/	1dd\	.	1ff\	-san-
8C\	.	.	.	.	.	.
8D\	.	.	.	.	.	.
8E-\J	.	.	.	.	.	.
8F\L	.	.	.	.	.	.
8G\	.	.	.	.	.	.
8An\	.	.	.	.	.	.
[8B-\J	.	.	.	.	.	.
!!LO:LB:g=original
=29	=29	=29	=29	=29	=29	=29
*^	*	*	*	*	*	*
4rc]	4E-\	4b-\ 4ee-\ 4gg\	4E-\	4ee-\	na	4gg\	-na
4An/	4F#X\	4r	4r	4an/	o-	4r	.
4B-/	4G\	2r	2r	4b-/	-san-	2r	.
4G/	4E-\	.	.	4g/	-na	.	.
*v	*v	*	*	*	*	*	*
=30	=30	=30	=30	=30	=30	=30
1BB-\ 1B-\	1f/ 1a-/ 1b-/ 1dd/	4BB-/	4f/ 4a-/	.	4dd\	in
.	.	4BB-/	2f/ 2a-/	.	4dd\	ex-
.	.	2BB-/	.	.	2dd\	-cel-
.	.	.	4f/ 4a-/	.	.	.
=31	=31	=31	=31	=31	=31	=31
2EE-/ 2E-/	2g\ 2b-\ 2ee-\	2E-\	2g/ 2b-/	.	2ee-\	-sis
2r	2r	2r	2r	.	2r	.
==	==	==	==	==	==	==
*-	*-	*-	*-	*-	*-	*-
!!!system-decoration: [(s1,s2,s3)][(s4,s5)]
!!!ENC: Marta Chmielewska
!!!END: 2020-07-22
!!!EED: Leszek Kubiak
!!!EEV: 2020-09-24
